X:26
T:The Star-Spangled Banner
Z:Jack Campin  *  May 2000  *  http://www.campin.me.uk/
M:3/4
L:1/8
K:D
A>F|D2 F2 A2|d4    f>e|d2 F2 ^G2|A4    A2 |f3 e d2|c4 Bc |d2 d2  A2|F2 D2:|
f>f|f2 g2 a2|a4    g>f|e2 f2  g2|g4    g2 |f3 e d2|c4 B>c|d2 F2 ^G2|A4 A2 |
    d2 d2 dc|B2 B2 B2 |e2 gf  ed|d2 c2 A>A|d3 e fg|a4 d>e|f3  g  e2|d6   ||

